tela-icon-theme/src/scalable/apps/toolbox.svg

<svg xmlns="http://www.w3.org/2000/svg" width="64" height="64" viewBox="0 0 16.933 16.933"><path d="M15.61 8.466a7.144 7.144 0 0 1-7.144 7.144 7.144 7.144 0 0 1-7.143-7.144 7.144 7.144 0 0 1 7.143-7.143 7.144 7.144 0 0 1 7.144 7.143z" style="fill:#e18c41"/><path fill="#303030" d="M5.821 4.498h5.291a1.323 1.323 0 0 1 1.323 1.323v5.291a1.323 1.323 0 0 1-1.323 1.323H5.821a1.323 1.323 0 0 1-1.323-1.323V5.821a1.323 1.323 0 0 1 1.323-1.323Z" style="paint-order:markers stroke fill"/><path d="M7.109 8.835v-2.92h.997v-.679H5.393v.679h.997v2.92h.719Zm3.669-1.871c.253-.155.413-.432.413-.792 0-.56-.4-.936-1.178-.936H8.492v3.599h1.61c.818 0 1.245-.36 1.245-.981 0-.453-.223-.762-.569-.89Zm-.854-1.101c.352 0 .543.139.543.422s-.191.427-.543.427h-.716v-.849h.716Zm-.716 2.345v-.889h.84c.374 0 .574.144.574.447 0 .309-.2.442-.574.442h-.84Z" style="fill:#fff;white-space:pre"/><path d="M5.033 10.97h3.092v.614H5.033v-.614Z" style="fill:#fff"/></svg>

<?xml version="1.0" encoding="utf-8"?>
<svg width="64" height="64" viewBox="0 0 16.933 16.933" xmlns="http://www.w3.org/2000/svg">
  <path d="M15.61 8.466a7.144 7.144 0 0 1-7.144 7.144 7.144 7.144 0 0 1-7.143-7.144 7.144 7.144 0 0 1 7.143-7.143 7.144 7.144 0 0 1 7.144 7.143z" style="fill: rgb(225, 140, 65);"/>
  <path d="M 5.821 4.498 H 11.112 A 1.323 1.323 0 0 1 12.435 5.821 V 11.112 A 1.323 1.323 0 0 1 11.112 12.435 H 5.821 A 1.323 1.323 0 0 1 4.498 11.112 V 5.821 A 1.323 1.323 0 0 1 5.821 4.498 Z" fill="#303030" style="paint-order:markers stroke fill"/>
  <path d="M 7.109 8.835 L 7.109 5.915 L 8.106 5.915 L 8.106 5.236 L 5.393 5.236 L 5.393 5.915 L 6.39 5.915 L 6.39 8.835 L 7.109 8.835 Z M 10.778 6.964 C 11.031 6.809 11.191 6.532 11.191 6.172 C 11.191 5.612 10.791 5.236 10.013 5.236 L 8.492 5.236 L 8.492 8.835 L 10.102 8.835 C 10.92 8.835 11.347 8.475 11.347 7.854 C 11.347 7.401 11.124 7.092 10.778 6.964 Z M 9.924 5.863 C 10.276 5.863 10.467 6.002 10.467 6.285 C 10.467 6.568 10.276 6.712 9.924 6.712 L 9.208 6.712 L 9.208 5.863 L 9.924 5.863 Z M 9.208 8.208 L 9.208 7.319 L 10.048 7.319 C 10.422 7.319 10.622 7.463 10.622 7.766 C 10.622 8.075 10.422 8.208 10.048 8.208 L 9.208 8.208 Z" style="fill: rgb(255, 255, 255); white-space: pre;"/>
  <path d="M 5.033 10.97 L 8.125 10.97 L 8.125 11.584 L 5.033 11.584 L 5.033 10.97 Z" style="fill: rgb(255, 255, 255);"/>
</svg>
